packages/dnb-eufemia/assets/icons/thumbs_up_medium.svg

<svg width="24" height="24" viewBox="0 0 24 24" fill="none" xmlns="http://www.w3.org/2000/svg">
<path d="M11.911 6.134L11.2447 5.78975L11.911 6.134ZM8.24816 10.2239L7.77372 9.64302L7.76911 9.64685L8.24816 10.2239ZM8.02311 20.2756L7.59952 20.8946L8.02311 20.2756ZM18.0479 21.846L18.2303 22.5735L18.0479 21.846ZM20.2051 18.5945L19.5926 18.1617L19.3945 18.4421L19.4772 18.7752L20.2051 18.5945ZM20.9099 15.8574L20.271 15.4645L20.1164 15.7159L20.1746 16.0053L20.9099 15.8574ZM21.2822 13.0884L20.6445 12.6936L20.4688 12.9774L20.5621 13.2979L21.2822 13.0884ZM21.9895 11.3848L22.735 11.4661L22.7359 11.4577L22.7367 11.4493L21.9895 11.3848ZM21.2478 9.38536L20.7194 9.91767L20.7194 9.91769L21.2478 9.38536ZM19.9229 8.67731L20.0657 7.94103L19.9229 8.67731ZM15.8395 8.6227L15.1539 8.31862C15.0503 8.55219 15.0728 8.82242 15.2134 9.03569C15.3541 9.24897 15.5937 9.37595 15.8492 9.37263L15.8395 8.6227ZM14.6683 2.02028L14.5426 2.75968L14.5506 2.76102L14.5585 2.7622L14.6683 2.02028ZM2.0186 10.9992L2.75853 11.1217L2.75853 11.1217L2.0186 10.9992ZM2 15.3118L1.25 15.3118V15.3118L2 15.3118ZM2.02887 19.6444L2.76224 19.4874L2.76223 19.4873L2.02887 19.6444ZM2.72345 20.2915L2.6046 21.032L2.60461 21.032L2.72345 20.2915ZM6.7818 20.2918L6.66584 19.5508L6.66582 19.5508L6.7818 20.2918ZM22.7367 11.4493C22.8228 10.4521 22.4896 9.56115 21.7761 8.85303L20.7194 9.91769C21.1231 10.3183 21.2894 10.7743 21.2422 11.3202L22.7367 11.4493ZM21.7761 8.85305C21.2874 8.368 20.7357 8.07097 20.0657 7.94103L19.7801 9.41359C20.1497 9.48528 20.4354 9.63576 20.7194 9.91767L21.7761 8.85305ZM2.58823 9.56952C2.14956 9.58975 1.8317 9.84262 1.64476 10.0703C1.45412 10.3024 1.32592 10.5913 1.27867 10.8767L2.75853 11.1217C2.7602 11.1116 2.76504 11.093 2.77515 11.0706C2.78522 11.0483 2.79627 11.0316 2.804 11.0222C2.81225 11.0122 2.8093 11.0192 2.78865 11.0315C2.76595 11.045 2.72064 11.065 2.65734 11.0679L2.58823 9.56952ZM1.27868 10.8767C1.26885 10.936 1.26719 10.9977 1.26713 10.9991C1.26615 11.0225 1.26535 11.0504 1.26465 11.0805C1.26324 11.1416 1.26196 11.225 1.2608 11.328C1.25847 11.5348 1.25649 11.8295 1.25488 12.2019C1.25167 12.9472 1.24993 14.009 1.25 15.3118L2.75 15.3117C2.74993 14.0099 2.75167 12.9506 2.75487 12.2084C2.75647 11.8371 2.75843 11.5464 2.76071 11.3449C2.76185 11.2438 2.76304 11.1674 2.76425 11.1152C2.76486 11.0888 2.76541 11.0717 2.76581 11.0621C2.76713 11.0305 2.7669 11.0711 2.75853 11.1217L1.27868 10.8767ZM1.25 15.3118C1.2501 17.1192 1.25115 18.1764 1.25527 18.7961C1.25733 19.105 1.26019 19.3114 1.26431 19.4498C1.26765 19.5618 1.27232 19.6933 1.29551 19.8016L2.76223 19.4873C2.77308 19.538 2.768 19.5512 2.76365 19.4051C2.76008 19.2854 2.75729 19.0939 2.75524 18.7861C2.75115 18.1724 2.7501 17.1209 2.75 15.3117L1.25 15.3118ZM1.2955 19.8015C1.4329 20.443 1.97021 20.9302 2.6046 21.032L2.84229 19.551C2.82654 19.5485 2.80525 19.5394 2.78614 19.5216C2.76694 19.5037 2.7626 19.4891 2.76224 19.4874L1.2955 19.8015ZM2.60461 21.032C2.66821 21.0423 2.74141 21.0448 2.76454 21.0457C2.80808 21.0475 2.86221 21.049 2.92325 21.0503C3.04605 21.053 3.20937 21.0551 3.39795 21.0569C3.77581 21.0603 4.26387 21.0621 4.75101 21.0621C5.23816 21.0621 5.72648 21.0604 6.10485 21.057C6.29369 21.0553 6.45732 21.0532 6.58049 21.0505C6.6673 21.0487 6.81248 21.0461 6.89777 21.0327L6.66582 19.5508C6.70754 19.5442 6.69853 19.5476 6.54821 19.5509C6.43425 19.5533 6.27781 19.5554 6.0913 19.5571C5.71897 19.5605 5.23549 19.5621 4.7511 19.5621C4.2667 19.5621 3.78349 19.5603 3.41169 19.5569C3.22544 19.5552 3.06934 19.5531 2.9558 19.5507C2.89866 19.5494 2.85539 19.5482 2.82575 19.5469C2.7757 19.5449 2.79995 19.5442 2.84228 19.551L2.60461 21.032ZM6.89775 21.0327C7.61485 20.9205 8.14624 20.3427 8.23142 19.6368L6.74222 19.4571C6.73824 19.4901 6.72533 19.5124 6.71219 19.5262C6.6993 19.5399 6.68411 19.5479 6.66584 19.5508L6.89775 21.0327ZM8.16884 10.6335C8.09257 10.4126 7.95958 10.1843 7.78727 9.99965C7.63204 9.83326 7.33064 9.58268 6.90762 9.58126L6.90258 11.0813C6.80399 11.0809 6.73752 11.0501 6.71112 11.0352C6.68528 11.0206 6.68021 11.0119 6.69047 11.0229C6.69947 11.0325 6.71269 11.0494 6.72607 11.0718C6.73952 11.0943 6.74757 11.1132 6.751 11.1231L8.16884 10.6335ZM16.5251 8.92677C17.05 7.74318 17.4454 6.06797 17.3487 4.5952C17.3002 3.85667 17.1239 3.10615 16.7177 2.4928C16.2944 1.85363 15.6479 1.40709 14.7781 1.27836L14.5585 2.7622C14.9976 2.82718 15.2735 3.02863 15.4671 3.32106C15.6779 3.63929 15.8132 4.10394 15.8519 4.69345C15.9296 5.87673 15.6017 7.30903 15.1539 8.31862L16.5251 8.92677ZM14.794 1.28089C14.4896 1.22915 14.0401 1.22999 13.5871 1.38153C13.1159 1.53913 12.6141 1.87203 12.3177 2.49122L13.6707 3.13877C13.7566 2.95949 13.8923 2.86113 14.063 2.80405C14.2517 2.7409 14.4482 2.74362 14.5426 2.75968L14.794 1.28089ZM8.24816 10.2239C8.72259 10.8048 8.72267 10.8047 8.72276 10.8047C8.72281 10.8046 8.72291 10.8045 8.72299 10.8045C8.72317 10.8043 8.72338 10.8041 8.72364 10.8039C8.72415 10.8035 8.72483 10.803 8.72567 10.8023C8.72734 10.8009 8.72965 10.799 8.73259 10.7966C8.73847 10.7917 8.74685 10.7848 8.7576 10.7759C8.77909 10.7581 8.81007 10.7322 8.84945 10.6989C8.92819 10.6323 9.04067 10.536 9.17826 10.4148C9.45307 10.1727 9.82995 9.8295 10.2391 9.42449C11.0409 8.6308 12.0292 7.53927 12.5774 6.47825L11.2447 5.78975C10.8112 6.62876 9.96807 7.58218 9.18387 8.35844C8.80001 8.73841 8.44523 9.06147 8.18663 9.28933C8.05751 9.40309 7.95286 9.49269 7.88113 9.55332C7.84528 9.58362 7.81769 9.60665 7.79943 9.62182C7.7903 9.6294 7.78351 9.63501 7.77918 9.63857C7.77701 9.64035 7.77547 9.64162 7.77455 9.64237C7.7741 9.64274 7.7738 9.64299 7.77366 9.6431C7.77359 9.64316 7.77356 9.64318 7.77358 9.64317C7.77358 9.64316 7.77362 9.64313 7.77362 9.64313C7.77367 9.64309 7.77373 9.64304 8.24816 10.2239ZM12.5774 6.47825C12.9331 5.78973 13.1251 5.08779 13.2719 4.50116C13.4294 3.87174 13.5218 3.44995 13.6707 3.13877L12.3177 2.49122C12.0845 2.9785 11.9487 3.6098 11.8167 4.13706C11.6741 4.7071 11.5156 5.26543 11.2447 5.78975L12.5774 6.47825ZM20.0657 7.94103C19.8597 7.90108 19.4661 7.88571 19.0837 7.87647C18.668 7.86642 18.1672 7.86273 17.6871 7.8622C17.2061 7.86167 16.742 7.86431 16.3984 7.86708C16.2265 7.86846 16.0846 7.86988 15.9855 7.87095C15.936 7.87149 15.8972 7.87194 15.8707 7.87226C15.8574 7.87241 15.8473 7.87254 15.8404 7.87263C15.8369 7.87267 15.8343 7.8727 15.8325 7.87272C15.8316 7.87274 15.831 7.87274 15.8305 7.87275C15.8303 7.87275 15.8301 7.87276 15.83 7.87276C15.8299 7.87276 15.8299 7.87276 15.8298 7.87276C15.8298 7.87276 15.8298 7.87276 15.8395 8.6227C15.8492 9.37263 15.8492 9.37263 15.8492 9.37263C15.8493 9.37263 15.8493 9.37263 15.8493 9.37263C15.8494 9.37263 15.8496 9.37263 15.8498 9.37263C15.8502 9.37262 15.8508 9.37261 15.8516 9.3726C15.8533 9.37258 15.8558 9.37255 15.8591 9.37251C15.8657 9.37243 15.8756 9.3723 15.8886 9.37215C15.9146 9.37184 15.9528 9.37139 16.0018 9.37086C16.0996 9.3698 16.2402 9.3684 16.4105 9.36703C16.7513 9.36428 17.2105 9.36168 17.6854 9.3622C18.1612 9.36272 18.6488 9.36639 19.0475 9.37603C19.2471 9.38086 19.4199 9.38708 19.5555 9.39481C19.6234 9.39867 19.6782 9.40271 19.7204 9.40671C19.7662 9.41108 19.7827 9.4141 19.7801 9.41359L20.0657 7.94103ZM7.59952 20.8946C9.25256 22.0259 11.0347 22.1596 12.9928 22.4608L13.2208 20.9782C11.0968 20.6516 9.74744 20.5469 8.44669 19.6567L7.59952 20.8946ZM12.9928 22.4608C14.0386 22.6216 15.0564 22.7192 15.9485 22.7438C16.8268 22.7681 17.6327 22.7233 18.2303 22.5735L17.8655 21.1185C17.467 21.2184 16.8228 21.2674 15.9899 21.2444C15.1707 21.2218 14.216 21.1312 13.2208 20.9782L12.9928 22.4608ZM18.2303 22.5735C18.3373 22.5467 19.1946 22.3644 19.9304 21.7736C20.3093 21.4693 20.6738 21.0437 20.8833 20.4634C21.094 19.8797 21.1273 19.1963 20.933 18.4138L19.4772 18.7752C19.6109 19.3136 19.5679 19.6897 19.4724 19.9541C19.3757 20.2219 19.2041 20.433 18.9912 20.604C18.5432 20.9637 17.994 21.0863 17.8655 21.1185L18.2303 22.5735ZM20.8177 19.0272C21.174 18.5229 21.4725 18.0444 21.6278 17.5007C21.7889 16.9367 21.7783 16.371 21.6452 15.7095L20.1746 16.0053C20.2766 16.5123 20.2615 16.8225 20.1855 17.0887C20.1037 17.3752 19.9322 17.6809 19.5926 18.1617L20.8177 19.0272ZM21.5488 16.2502C21.8966 15.6847 22.1294 15.165 22.2016 14.5925C22.2737 14.0216 22.1759 13.4753 22.0023 12.8789L20.5621 13.2979C20.7117 13.8123 20.7482 14.1294 20.7134 14.4048C20.6789 14.6786 20.564 14.988 20.271 15.4645L21.5488 16.2502ZM21.9199 13.4832C22.302 12.866 22.635 12.3835 22.735 11.4661L21.2439 11.3035C21.1854 11.8393 21.0411 12.0531 20.6445 12.6936L21.9199 13.4832ZM6.90762 9.58126C6.69859 9.58056 2.92185 9.55414 2.58823 9.56952L2.65734 11.0679C2.6573 11.0679 2.65777 11.0679 2.65885 11.0679C2.65991 11.0678 2.66137 11.0678 2.66328 11.0677C2.66715 11.0676 2.67225 11.0675 2.67871 11.0673C2.69172 11.067 2.70848 11.0667 2.7292 11.0664C2.77064 11.0659 2.82441 11.0655 2.88948 11.0651C3.01947 11.0645 3.18996 11.0643 3.38811 11.0646C3.78417 11.065 4.28652 11.0669 4.78744 11.0693C5.78576 11.0741 6.78449 11.0809 6.90258 11.0813L6.90762 9.58126ZM7.76911 9.64685L6.98086 10.3012L7.93897 11.4553L8.72722 10.801L7.76911 9.64685ZM8.44669 19.6567C8.45342 19.6613 8.43444 19.6486 8.39478 19.6005C8.35827 19.5562 8.31971 19.5007 8.28252 19.4408C8.24604 19.382 8.21575 19.3267 8.19473 19.2864C8.18438 19.2665 8.17669 19.251 8.17203 19.2414C8.1697 19.2367 8.16817 19.2334 8.16746 19.2319C8.1671 19.2312 8.16696 19.2309 8.16703 19.231C8.16707 19.2311 8.16716 19.2313 8.1673 19.2316C8.16737 19.2318 8.16746 19.2319 8.16756 19.2322C8.16761 19.2323 8.16766 19.2324 8.16772 19.2325C8.16775 19.2326 8.16779 19.2327 8.16781 19.2327C8.16785 19.2328 8.1679 19.2329 7.48682 19.5469C6.80573 19.861 6.80578 19.8611 6.80583 19.8612C6.80585 19.8612 6.8059 19.8613 6.80593 19.8614C6.80601 19.8616 6.80608 19.8617 6.80616 19.8619C6.80632 19.8623 6.8065 19.8626 6.80669 19.8631C6.80707 19.8639 6.80751 19.8648 6.80802 19.8659C6.80903 19.8681 6.81029 19.8708 6.81179 19.8739C6.81479 19.8803 6.81877 19.8886 6.82369 19.8987C6.83349 19.9188 6.84712 19.9461 6.86418 19.9789C6.898 20.0439 6.94691 20.1333 7.00791 20.2316C7.11351 20.4018 7.3158 20.7004 7.59952 20.8946L8.44669 19.6567ZM8.23681 19.5446L8.20991 10.876L6.70992 10.8806L6.73682 19.5493L8.23681 19.5446Z" fill="black"/>
</svg>

<svg width="24" height="24" viewBox="0 0 24 24" fill="none" xmlns="http://www.w3.org/2000/svg"><path d="m11.911 6.134-.666-.344.666.344Zm-3.663 4.09-.474-.581-.005.004.48.577Zm-.225 10.052-.423.619.423-.62Zm10.025 1.57.182.727-.182-.727Zm2.157-3.252-.612-.432-.198.28.082.333.728-.18Zm.705-2.737-.639-.393-.155.252.059.29.735-.149Zm.372-2.769-.637-.394-.176.283.093.32.72-.209Zm.707-1.703.746.081v-.008l.002-.009-.747-.064Zm-.741-2-.529.533.529-.533Zm-1.325-.708.143-.736-.143.736Zm-4.083-.054-.686-.304a.75.75 0 0 0 .695 1.054l-.01-.75ZM14.667 2.02l-.125.74.008.001.008.001.11-.742ZM2.018 11l.74.122-.74-.123ZM2 15.311h-.75H2Zm.029 4.332.733-.157-.733.157Zm.694.648-.118.74.118-.74Zm4.059 0-.116-.741.116.74Zm15.955-8.843c.086-.997-.247-1.888-.96-2.596l-1.058 1.065c.404.4.57.856.523 1.402l1.495.13Zm-.96-2.596a3.216 3.216 0 0 0-1.711-.912l-.286 1.473c.37.071.655.222.94.504l1.056-1.065Zm-19.19.718c-.438.02-.756.273-.943.5-.19.232-.32.521-.366.807l1.48.245a.22.22 0 0 1 .016-.051.225.225 0 0 1 .029-.049c.008-.01.005-.003-.015.01a.286.286 0 0 1-.132.036L2.588 9.57Zm-1.31 1.307c-.01.059-.01.12-.01.122a761.902 761.902 0 0 0-.017 4.313h1.499a759.72 759.72 0 0 1 .01-3.967 20.817 20.817 0 0 1 .006-.283c.001-.031 0 .01-.007.06l-1.48-.245Zm-.028 4.435c0 1.807.001 2.864.005 3.484.002.309.005.515.01.654.003.112.007.243.03.352l1.467-.315c.011.051.006.064.002-.082a29.72 29.72 0 0 1-.009-.619c-.004-.614-.005-1.665-.005-3.474h-1.5Zm.046 4.49a1.604 1.604 0 0 0 1.309 1.23l.237-1.481a.112.112 0 0 1-.08-.064l-1.466.315Zm1.309 1.23c.063.01.136.013.16.014l.158.004a159.172 159.172 0 0 0 3.657 0 2.81 2.81 0 0 0 .318-.017l-.232-1.482c.042-.007.033-.003-.118 0l-.457.006a156.198 156.198 0 0 1-3.265-.01c-.05-.002-.026-.003.016.004l-.237 1.481Zm4.293 0a1.595 1.595 0 0 0 1.333-1.395l-1.489-.18a.119.119 0 0 1-.03.07.078.078 0 0 1-.046.024l.232 1.482Zm1.27-10.399a1.805 1.805 0 0 0-.38-.633c-.156-.167-.457-.417-.88-.419l-.005 1.5a.397.397 0 0 1-.192-.046c-.026-.014-.03-.023-.02-.012a.298.298 0 0 1 .06.1l1.418-.49Zm8.357-1.706c.525-1.184.92-2.859.824-4.332-.049-.738-.225-1.489-.631-2.102-.424-.64-1.07-1.086-1.94-1.215l-.22 1.484c.44.065.716.267.91.56.21.317.345.782.384 1.371.078 1.184-.25 2.616-.698 3.626l1.371.608Zm-1.73-7.647a2.58 2.58 0 0 0-1.207.1 2.13 2.13 0 0 0-1.27 1.11l1.354.648a.626.626 0 0 1 .392-.335c.189-.063.385-.06.48-.044l.251-1.48Zm-6.546 8.943.475.58.003-.002a.74.74 0 0 1 .007-.005l.025-.021.091-.077a25.315 25.315 0 0 0 1.39-1.274c.802-.794 1.79-1.886 2.338-2.947l-1.332-.688c-.434.839-1.277 1.792-2.061 2.568a23.846 23.846 0 0 1-1.405 1.28l-.004.004-.001.001.474.58Zm4.33-3.746c.355-.688.547-1.39.694-1.977.157-.63.25-1.051.399-1.362l-1.353-.648c-.233.487-.37 1.119-.501 1.646-.143.57-.301 1.128-.572 1.653l1.332.688Zm7.488 1.463c-.206-.04-.6-.055-.982-.065-.416-.01-.917-.013-1.397-.014a143.983 143.983 0 0 0-1.847.01h-.01l.01.75.01.75a.158.158 0 0 1 .01 0h.029a99.116 99.116 0 0 1 .521-.005c.341-.003.8-.005 1.275-.005.476 0 .964.004 1.363.014a16.225 16.225 0 0 1 .672.03.505.505 0 0 1 .06.008l.286-1.473ZM7.6 20.895c1.653 1.13 3.435 1.265 5.393 1.566l.228-1.483c-2.124-.326-3.474-.431-4.774-1.321L7.6 20.895Zm5.393 1.566c1.046.16 2.063.258 2.955.283.879.024 1.685-.02 2.282-.17l-.364-1.456c-.399.1-1.043.15-1.876.126a22.8 22.8 0 0 1-2.77-.266l-.227 1.483Zm5.237.113c.107-.027.965-.21 1.7-.8a2.97 2.97 0 0 0 .953-1.31c.211-.584.244-1.268.05-2.05l-1.456.361c.134.539.09.915-.005 1.18a1.472 1.472 0 0 1-.48.649c-.449.36-.998.482-1.127.515l.365 1.454Zm2.588-3.547c.356-.504.654-.983.81-1.526.16-.564.15-1.13.017-1.792l-1.47.296c.102.507.087.818.01 1.084-.081.286-.253.592-.592 1.073l1.225.865Zm.73-2.777c.349-.565.581-1.085.654-1.658.072-.57-.026-1.117-.2-1.713l-1.44.419c.15.514.186.831.151 1.107-.034.274-.149.583-.442 1.06l1.278.785Zm.372-2.767c.382-.617.715-1.1.815-2.017l-1.491-.162c-.059.535-.203.75-.6 1.39l1.276.79ZM6.908 9.581c-.21 0-3.986-.027-4.32-.011l.07 1.498h.021a6.105 6.105 0 0 1 .21-.003h.5c.395 0 .898.002 1.398.004l2.116.012.005-1.5Zm.861.066-.788.654.958 1.154.788-.654-.958-1.154Zm.678 10.01c.006.004-.013-.008-.052-.056a1.507 1.507 0 0 1-.112-.16 2.424 2.424 0 0 1-.111-.2l-.005-.01v.001l-.68.315-.681.314v.002l.002.003a.434.434 0 0 0 .016.033 3.5 3.5 0 0 0 .184.333c.106.17.308.468.592.663l.847-1.238Zm-.21-.112-.027-8.669-1.5.005.027 8.668 1.5-.004Z" fill="#000"/></svg>
